assets/icons/computer-legacy.svg

<?xml version="1.0" encoding="UTF-8" standalone="no"?>
<svg
   viewBox="0 1 24 24"
   height="24"
   width="24"
   version="1.1"
   id="svg10"
   sodipodi:docname="computer-legacy.svg"
   inkscape:version="1.2 (1:1.2.1+202207142221+cd75a1ee6d)"
   xmlns:inkscape="http://www.inkscape.org/namespaces/inkscape"
   xmlns:sodipodi="http://sodipodi.sourceforge.net/DTD/sodipodi-0.dtd"
   xmlns="http://www.w3.org/2000/svg"
   xmlns:svg="http://www.w3.org/2000/svg">
  <defs
     id="defs14" />
  <sodipodi:namedview
     id="namedview12"
     pagecolor="#ffffff"
     bordercolor="#666666"
     borderopacity="1.0"
     inkscape:pageshadow="2"
     inkscape:pageopacity="0.0"
     inkscape:pagecheckerboard="0"
     showgrid="true"
     inkscape:zoom="33.457231"
     inkscape:cx="6.0375588"
     inkscape:cy="11.088784"
     inkscape:window-width="1920"
     inkscape:window-height="1043"
     inkscape:window-x="0"
     inkscape:window-y="0"
     inkscape:window-maximized="1"
     inkscape:current-layer="svg10"
     inkscape:showpageshadow="2"
     inkscape:deskcolor="#d1d1d1">
    <inkscape:grid
       type="xygrid"
       id="grid9" />
    <inkscape:grid
       type="xygrid"
       id="grid826"
       dotted="true"
       spacingx="0.5"
       spacingy="0.5"
       empspacing="10" />
  </sodipodi:namedview>
  <path
     id="rect439"
     style="color:#000000;fill:#808080;stroke-linejoin:round"
     d="m 6.4726562,2 c -2.4719042,0.010987 -2.4726562,0.1875224 -2.4726562,3 v 8 c 0,2.999976 2.4e-5,3 3,3 h 2 6 2 c 2.999976,0 3,-2.4e-5 3,-3 v -8 c 0,-2.999976 -2.4e-5,-3 -3,-3 h -10 c -0.1874984,0 -0.3625497,-7.324e-4 -0.5273438,0 z m 2.0273438,2 h 7 c 1.384995,0 2.5,1.115007 2.5,2.5 v 5 c 0,1.384995 -1.115005,2.5 -2.5,2.5 h -7 c -1.384993,0 -2.5,-1.115005 -2.5,-2.5 v -5 c 0,-1.384993 1.115007,-2.5 2.5,-2.5 z m -4,13 c -2.49999,0 -2.5,9e-6 -2.5,2.5 0,2.499991 1e-5,2.5 2.5,2.5 h 15 c 2.499991,0 2.5,-9e-6 2.5,-2.5 0,-2.499991 -9e-6,-2.5 -2.5,-2.5 h -4.5 -6 z m 0,2 c 0.2761424,0 0.5,0.223858 0.5,0.5 0,0.276142 -0.2238576,0.5 -0.5,0.5 -0.2761424,0 -0.5,-0.223858 -0.5,-0.5 0,-0.276142 0.2238576,-0.5 0.5,-0.5 z m 9.5,1 h 6 v 1 h -6 z"
     sodipodi:nodetypes="ssssccsssssssssssssssssssssccssssssccccc" />
</svg>

<?xml version="1.0" encoding="UTF-8" standalone="no"?>
<svg
   viewBox="0 1 24 24"
   height="24"
   width="24"
   version="1.1"
   id="svg10"
   sodipodi:docname="computer-legacy.svg"
   inkscape:version="1.2 (1:1.2.1+202207142221+cd75a1ee6d)"
   xmlns:inkscape="http://www.inkscape.org/namespaces/inkscape"
   xmlns:sodipodi="http://sodipodi.sourceforge.net/DTD/sodipodi-0.dtd"
   xmlns="http://www.w3.org/2000/svg"
   xmlns:svg="http://www.w3.org/2000/svg">
  <defs
     id="defs14" />
  <sodipodi:namedview
     id="namedview12"
     pagecolor="#ffffff"
     bordercolor="#666666"
     borderopacity="1.0"
     inkscape:pageshadow="2"
     inkscape:pageopacity="0.0"
     inkscape:pagecheckerboard="0"
     showgrid="true"
     inkscape:zoom="33.457231"
     inkscape:cx="6.27667"
     inkscape:cy="11.103728"
     inkscape:window-width="1850"
     inkscape:window-height="1016"
     inkscape:window-x="0"
     inkscape:window-y="0"
     inkscape:window-maximized="1"
     inkscape:current-layer="svg10"
     inkscape:showpageshadow="2"
     inkscape:deskcolor="#d1d1d1">
    <inkscape:grid
       type="xygrid"
       id="grid9" />
    <inkscape:grid
       type="xygrid"
       id="grid826"
       dotted="true"
       spacingx="0.5"
       spacingy="0.5"
       empspacing="10" />
  </sodipodi:namedview>
  <path
     id="rect439"
     style="color:#000000;fill:#808080;stroke-linejoin:round"
     d="M 6.4726562 2 C 4.0007495 2.010987 4 2.1875196 4 5 L 4 13 C 4 15.999979 4.000021 16 7 16 L 9 16 L 15 16 L 17 16 C 19.999979 16 20 15.999979 20 13 L 20 5 C 20 2.000021 19.999979 2 17 2 L 7 2 C 6.8125014 2 6.6374504 1.9992676 6.4726562 2 z M 8.5 4 L 15.5 4 C 16.884996 4 18 5.1150056 18 6.5 L 18 11.5 C 18 12.884996 16.884996 14 15.5 14 L 8.5 14 C 7.1150056 14 6 12.884996 6 11.5 L 6 6.5 C 6 5.1150056 7.1150056 4 8.5 4 z M 18.5 14 A 0.5 0.5 0 0 1 19 14.5 A 0.5 0.5 0 0 1 18.5 15 A 0.5 0.5 0 0 1 18 14.5 A 0.5 0.5 0 0 1 18.5 14 z M 4.5 17 C 2.0000075 17 2 17.000007 2 19.5 C 2 21.999993 2.0000075 22 4.5 22 L 19.5 22 C 21.999993 22 22 21.999993 22 19.5 C 22 17.000007 21.999993 17 19.5 17 L 15 17 L 9 17 L 4.5 17 z M 14 20 L 20 20 L 20 21 L 14 21 L 14 20 z " />
</svg>
